X:87
T:Suite in A Major - Gigue
C:Froberger, J.J.
M:6/8
L:1/8
Q:3/8=116
K:A
|:A|A2c e2c|B2d f2d|c2e g2e|f4 e|
d2f a2f|e2g b2g|a2e f2d|e3 e:|

